X: 2115
T: Atlanta, The
R: hornpipe
M: 4/4
K: Dmajor
|:A2|d2 fd c2 ec|d2 A2 A2 BA|BAGF GFED|CDEF ECA,C|
d2 fd c2 ec|d2 A2 A2 BA|BAGF EDCE|D2 D2 D2:|
|:A2|DFAF AFAF|EGBG BGBG|DFAF AFAF|ED CB, A,2 A,2|
DFAF AFAF|EGBG BGBG|FAdf gece|d2 d2 d2:|

